**kern	**kern
*staff1	*staff1
=1-	=1-	!!Head
*clefG2	*clefG2
*k[]	*k[]
*C:	*C:
*M4/4	*M4/4
2r	.
4r	.
{[4c/	.
=2	=2
4c/]	1C:maj
2d/	.
[4e/	.
=3||	=3||
4e/]	1C:maj
2f/	.
8e/L	.
8d/J	.
=4	=4
4g/	1C:maj
4c/	.
2d/}	.
=5	=5
1r	1C:maj
=6	=6
8r	2G:min
{8f#/	.
12g\L	.
12b-\	.
12dd\J	.
8ff\L	2C:dom
8ee\	.
8dd\	.
8dd-\J	.
=7	=7
4cc\	1F:dom
4r	.
8dd\L	.
8dd-\	.
8cc\	.
8b\J	.
=8	=8
8b-/L	2C:dom
8a/	.
8a-/	.
8f/J	.
8e-/L	2G:dom
8c/	.
8g/	.
8g-/J	.
=9	=9
8f/L	2D:min
8e/	.
8d/	.
8c/J	.
4B/	2G:dom
[4c/	.
=10	=10
4c/]	1C:maj
2d/	.
[4e/	.
=11||	=11||
4e/]	1C:maj
2f/	.
8e/L	.
8d/J	.
=12	=12
4g/	1C:maj
4c/	.
2d/}	.
=13	=13
1r	1C:maj
=14	=14
1r	.
=15	=15
1r	.
=16	=16
1r	.
=17	=17
1r	.
=18	=18
{8gg\L	1E:dom
8gg-\	.
8ff\	.
8ee\J	.
8dd\L	.
8cc\	.
8b\	.
8a\J	.
=19||	=19||
12b-\L	1E:dom
12cc\	.
12b-\J	.
8a/L	.
8g/J	.
8f/L	.
8d-/	.
8c/	.
8B-/J	.
=20	=20
8A/L	1A:dom
8c/	.
8e/	.
8f/J	.
8g/L	.
8f/	.
8d/	.
8c/J	.
=21	=21
8a-/L	1A:dom
8cc/	.
8b-/	.
8an/J	.
8a-/L	.
8g-/	.
8e-/	.
8c/J	.
=22	=22
8d-/L	1D:dom
8B/	.
8c/	.
8f/J	.
8e/L	.
8dn/	.
8g/	.
8f/J	.
=23	=23
8e/L	1D:dom
8A/	.
8c/	.
8e/J	.
8d/L	.
8d-/	.
8dn/J	.
8r	.
=24	=24
8r	1G:dom
8c#/L	.
8d/	.
8e/J	.
8f/L	.
8g/	.
8a/	.
8cc/J	.
=25	=25
8ee\L	1G:dom
8dd\J}	.
4r	.
4r	.
{8g/L	.
8a/J	.
=26	=26
8cc\L	1C:maj
8ee\	.
8dd\	.
8cc\J	.
4b\	.
4r	.
=27||	=27||
8dd\L	2D:min
8b\	.
8cc\	.
8g\J	.
4r	2G:dom
8r	.
[8b\	.
=28	=28
4b\]	2E:min
8a/L	.
8a-/J	.
8g/L	2A:dom
8g-/	.
8f/	.
8e/J	.
=29	=29
8d/L	2D:min
8c/	.
8B/	.
8d/J	.
8f/L	2G:dom
8a-/	.
8g/	.
8f/J	.
=30	=30
8e/L	1G:min
8c/	.
8c#/	.
8d/J	.
8B-/L	2C:dom
8A-/	.
8An/	.
8cn/J	.
=31	=31
8g/L	1F:dom
8f/J}	.
4r	.
2r	.
=32	=32
1r	1C:dom
=33	=33
2r	2D:min
8r	2G:dom
{8e/L	.
8f/	.
8f#/J	.
=34	=34	!!Chorus 1
8g/L	1C:dom
8g-/	.
8f/	.
8e/J	.
8d/L	.
8c/	.
8B/	.
8d/J	.
=35||	=35||
8f/L	2D:min
8a-/	.
8g/	.
8f/J	.
8e/L	2G:dom
8d#/	.
8e/	.
8g/J	.
=36	=36
8a\L	2E:min
8b\	.
8dd\	.
8b\J	.
8dd-/L	2A:dom
8b-/	.
8g-/	.
8e-/J	.
=37	=37
12cc\L	2D:min
12b\	.
12b-\J	.
8a/L	.
8f/J	.
8d/L	2G:dom
8c/	.
8g/	.
8a/J	.
=38	=38
8b-/L	1G:min
8d/	.
8d#/	.
8e/J	.
8a/L	2C:dom
8a-/	.
8g/	.
8g-/J	.
=39	=39
8f/L	1F:dom
8c/	.
8d/	.
8e-/J	.
8B-/L	.
8Bn/	.
8d/	.
8B/J	.
=40	=40
8c/L	2C:dom
8G/J}	.
4r	.
2r	2A:dom
=41	=41
2r	2D:min
4r	2G:dom
8r	.
{[8d/	.
=42	=42
8d/L]	1C:dom
8B-/	.
8A/	.
8G/J	.
8G-/L	.
8A/	.
8c/	.
8e-/J	.
=43||	=43||
8c/L	2D:min
8c#/	.
8d/	.
8cn/J	.
8B/L	2G:dom
8d/	.
8f/	.
8a-/J	.
=44	=44
8a/L	2E:min
8d#/	.
8e/	.
8g/J	.
8f/L	2A:dom
8e/	.
8dn/	.
8c/J	.
=45	=45
8B/L	2D:min
8d/	.
8f/	.
8a-/J	.
4g/}	2G:dom
4r	.
=46	=46
2r	2G:min
{8dd\L	.
8dd-\	.
8cc\	2C:dom
8b-\J	.
=47	=47
8a/L	2F:dom
8f/	.
8d/	.
8c/J	.
8a-/L	2B-:dom
8cc/J	.
4r	.
=48	=48
8c/L	1C:dom
8f/	.
8d/	.
8e-/J	.
8en/L	.
8G/	.
8A/	.
8B/J	.
=49	=49
8d/L	1C:dom
8c/	.
8B/	.
8c/J	.
8d#/L	.
8e/	.
8f/	.
8f#/J	.
=50	=50
4g/}	1G:min
4r	.
{8f#/L	.
8g/	.
8b-/	.
8dd/J	.
=51||	=51||
8ff\L	1C:dom
8dd\	.
8dd#\	.
8ee\J	.
8cc\L	.
8cc#\	.
8ddn\	.
8ccn\J	.
=52	=52
8b-/L	1F:maj
8a/	.
8g/	.
8f/J	.
8e/L	.
8g/	.
8b-/	.
8dd/J	.
=53	=53
4cc\}	1F:maj
4r	.
2r	.
=54	=54
4r	1D:dom
{8d/L	.
8e/J	.
8f#/L	.
8g/	.
8a/	.
8b/J	.
=55	=55
8cc/L	1D:dom
8b/	.
8a/	.
8g/J	.
4f#/}	.
4r	.
=56	=56
4r	1D:min
{8d/L	.
8e/J	.
8f/L	.
8g/	.
8a/	.
8b/J	.
=57	=57
8cc/L	1G:dom
8b/	.
8a/	.
8g/J	.
4f/	.
8ee\L	.
8dd\J	.
=58	=58
8cc\L	1C:dom
8b\	.
8cc\	.
8dd\J	.
4cc\}	.
4r	.
=59||	=59||
2r	2D:min
8r	1G:dom
{8e/L	.
8f/	.
8f#/J	.
=60	=60
8g/L	2E:min
8g-/	.
8f/	.
8e/J	.
8d/L	2A:dom
8c/	.
8B/	.
8d/J	.
=61	=61
8f/L	2D:min
8a-/	.
8g/	.
8g-/J	.
4f/}	2G:dom
4r	.
=62	=62
4r	1C:dom
{8dd\L	.
8dd-\J	.
8cc/L	.
8a/J	.
12b-\L	.
12cc\	.
12b-\J	.
=63	=63
8a/L	2F:dom
8f/	.
8d/	.
8c/J	.
8a-/L	2F:min
8cc/	.
8g/	.
8B/J	.
=64	=64
8c/L	1C:maj
8f/	.
8d/	.
8d#/J	.
8e/L	.
8G/J}	.
4r	.
=65	=65
1r	1C:maj
=66	=66
{8g/L	1C:dom
8a/	.
8cc/	.
8ee/J	.
8g/L	.
8a/	.
8cc/	.
8ee/J	.
=67||	=67||
4dd\}	2D:min
4r	.
2r	2G:dom
=68	=68
2r	2E:min
{8g-/L	2A:dom
8a/	.
8cc/	.
8ee/J	.
=69	=69
8f/L	2D:min
8a/	.
8cc/	.
8ee/J	.
8e/L	2G:dom
8g/	.
8a/	.
8b/J	.
=70	=70
8dd\L	2G:min
8dd-\J	.
4cc\}	.
2r	2C:dom
=71	=71
{8dd\L	1F:dom
8dd-\	.
8cc\	.
8b-\J	.
8a/L	.
8f/	.
8d/	.
8c/J	.
=72	=72
8a-/L	1C:dom
8cc/	.
8g/	.
8B/J	.
8c/L	.
8f/	.
8d/	.
8e-/J	.
=73	=73
8e/L	2D:min
8G/	.
8A/	.
8B/J	.
8d/L	2G:dom
8c/	.
8B/	.
8c/J	.
=74	=74
8f/L	1C:dom
8e/	.
8e-/	.
8f/J	.
8a/L	.
8g/	.
8f#/	.
8g/J	.
=75||	=75||
8dd\L	2D:min
8cc\	.
8b\	.
8cc\J	.
8dd#\L	2G:dom
8ee\	.
8ff\	.
8ff#\J	.
=76	=76
8gg\L	2C:dom
8gg-\	.
8ff\	.
8ee\J	.
8dd\L	2A:dom
8dd-\	.
8cc\	.
8b\J	.
=77	=77
8a/L	2D:min
8a-/	.
8g/	.
8g-/J	.
8e-/L	2G:dom
8c/	.
8g-/	.
8an/J	.
=78	=78
8r	2G:min
8d/L	.
8d#/	.
8e/J	.
8a/L	2C:dom
8a-/	.
8g/	.
8g-/J	.
=79	=79
8f/L	1F:dom
8c/	.
8e-/	.
8d/J	.
4B-/}	.
4r	.
=80	=80
2r	1C:dom
4r	.
{[4B/	.
=81	=81
4B/]	1C:dom
8d/L	.
8B/J	.
8c/L	.
8G/J}	.
4r	.
=82	=82
4r	1G:min
{12g\L	.
12b-\	.
12dd\J	.
8ff\L	.
8dd\	.
8dd#\	.
8ee\J	.
=83||	=83||
8cc\L	1C:dom
8cc#\	.
8dd\	.
8ccn\J	.
8b-/L	.
8a/	.
8g/	.
8f/J	.
=84	=84
8e/L	1F:maj
8g/	.
8b-/	.
8dd-/J	.
8cc/L	.
8a/J}	.
4r	.
=85	=85
2r	1F:maj
4r	.
{12c/L	.
12d/	.
12e/J	.
=86	=86
8f#/L	1D:dom
8g/	.
8a/	.
8b/J	.
8cc/L	.
8b/	.
8a/	.
8g/J	.
=87	=87
8f#/L	1D:dom
8d/	.
8d-/	.
8c/J	.
8e/L	.
8B/	.
8B-/	.
8A/J	.
=88	=88
8d/L	1G:dom
8c#/	.
8d/	.
8e/J	.
8f/L	.
8g/	.
8a/	.
8cc/J	.
=89	=89
8ee\L	1G:dom
8ee-\	.
8dd\	.
8dd-\J	.
8cc\L	.
8b\	.
8b-\	.
8a\J	.
=90	=90
8a-/L	1C:dom
8f/	.
8e-/	.
8c/J	.
8g/L	.
8an/	.
8b/	.
8g/J	.
=91||	=91||
8a/L	2D:min
8f/	.
8d/	.
8A/J	.
8c/L	2G:dom
8B-/	.
8Bn/	.
[8g/J	.
=92	=92
1g_	1A:dom
=93	=93
4g/]}	2D:min
{8e/L	.
8c/J	.
8d/L	2G:dom
8e/	.
8f/	.
8a/J	.
=94	=94
8g/L	2G:min
8f/	.
8e/	.
8c/J	.
8c#/L	2C:dom
8d/	.
8B-/	.
8A-/J	.
=95	=95
8A/L	2F:dom
8c/	.
8d/	.
8e/J	.
12a-/L	2F:min
12b-/	.
12a-/J	.
8g/L	.
8f/J	.
=96	=96
8e/L	1C:dom
8G/	.
8A/	.
8B/J	.
8d/L	.
8c/	.
8B/	.
8c/J	.
=97	=97
8d#/L	2D:min
8e/	.
8f/	.
8f#/J	.
8g/L	2G:dom
8fn/	.
8e/	.
8c/J	.
=98	=98
4d/}	1C:dom
4r	.
2r	.
==	==
*-	*-
